svg/clockface/clockfacesolid/clock_11_30.svg

<?xml version="1.0" encoding="UTF-8" standalone="no"?>
<svg
   height="1000"
   width="1000"
   version="1.1"
   id="h00m00"
   viewBox="0 0 1000 1000"
   sodipodi:docname="solid_clock_11_30.svg"
   xmlns:inkscape="http://www.inkscape.org/namespaces/inkscape"
   xmlns:sodipodi="http://sodipodi.sourceforge.net/DTD/sodipodi-0.dtd"
   xmlns="http://www.w3.org/2000/svg"
   xmlns:svg="http://www.w3.org/2000/svg">
  <defs
     id="defs10" />
  <sodipodi:namedview
     id="namedview8"
     pagecolor="#505050"
     bordercolor="#ffffff"
     borderopacity="1"
     inkscape:showpageshadow="0"
     inkscape:pageopacity="0"
     inkscape:pagecheckerboard="1"
     inkscape:deskcolor="#505050" />
  <path
     id="path14"
     style="color:#000000;fill:#000000;stroke-width:60;-inkscape-stroke:none"
     d="M 500 130 C 296.01059 130 130 296.01059 130 500 C 130 703.98941 296.01059 870 500 870 C 703.98941 870 870 703.98941 870 500 C 870 296.01059 703.98941 130 500 130 z M 410 314.11523 A 30 30 0 0 1 435.98047 329.11523 L 525.98047 485 A 30.003 30.003 0 0 1 530 500 L 530 770 A 30 30 0 0 1 500 800 A 30 30 0 0 1 470 770 L 470 508.03906 L 384.01953 359.11523 A 30 30 0 0 1 380.25586 348.03125 A 30 30 0 0 1 395 318.13477 A 30 30 0 0 1 410 314.11523 z " />
</svg>

<svg xmlns="http://www.w3.org/2000/svg" width="1000" height="1000"><path d="M500 130c-203.99 0-370 166.01-370 370s166.01 370 370 370 370-166.01 370-370-166.01-370-370-370zm-90 184.115a30 30 0 0 1 25.98 15l90 155.885a30.003 30.003 0 0 1 4.02 15v270a30 30 0 0 1-30 30 30 30 0 0 1-30-30V508.04l-85.98-148.925a30 30 0 0 1-3.764-11.084A30 30 0 0 1 395 318.135a30 30 0 0 1 15-4.02z" style="-inkscape-stroke:none" stroke-width="60"/></svg>
